X:77
T:Stage Hornpipe, The
R:hornpipe
D:Paddy Glackin: In Full Spate
Z:id:hn-hornpipe-77
M:C|
K:G
ef|ga (3gfe dgbd|ceac Bdgd|BG~G2 A2ag|fa (3gfe dgef|
ga (3gfe dgbd|ceac Bdgd|agfa (3efg fa|ecAF G2:|
|:GA|BG~G2 (3EFG DB,|G,GAB cBAE|A2AB cBcB|AF (3GFE (3DCB, (3CB,A,|
G,GAB cBcd|edef ga (3gfe|dbca Bg~g2|ecAF G2:|

